PortableApps/LibreOfficePortable/App/libreoffice/help/media/icon-themes/cmd/lc_showdetail.svg

<svg viewBox="0 0 24 24" xmlns="http://www.w3.org/2000/svg"><path d="m10.5 2c-.277 0-.5.223-.5.5s.223.5.5.5h10c.277 0 .5-.223.5-.5s-.223-.5-.5-.5zm0 3c-.277 0-.5.223-.5.5s.223.5.5.5h10c.277 0 .5-.223.5-.5s-.223-.5-.5-.5zm2 5c-.277 0-.5.223-.5.5s.223.5.5.5h8c.277 0 .5-.223.5-.5s-.223-.5-.5-.5zm0 3c-.277 0-.5.223-.5.5s.223.5.5.5h8c.277 0 .5-.223.5-.5s-.223-.5-.5-.5zm-2 5c-.277 0-.5.223-.5.5s.223.5.5.5h10c.277 0 .5-.223.5-.5s-.223-.5-.5-.5zm0 3c-.277 0-.5.223-.5.5s.223.5.5.5h10c.277 0 .5-.223.5-.5s-.223-.5-.5-.5z" fill="#808080"/><path d="m5 8v3h-3v2h3v3h2v-3h3v-2h-3v-3z" fill="#76a797"/></svg>

<svg viewBox="0 0 24 24" xmlns="http://www.w3.org/2000/svg">
  <path
     style="fill:#808080"
     d="M 10.5 2 C 10.223 2 10 2.223 10 2.5 C 10 2.777 10.223 3 10.5 3 L 20.5 3 C 20.777 3 21 2.777 21 2.5 C 21 2.223 20.777 2 20.5 2 L 10.5 2 z M 10.5 5 C 10.223 5 10 5.223 10 5.5 C 10 5.777 10.223 6 10.5 6 L 20.5 6 C 20.777 6 21 5.777 21 5.5 C 21 5.223 20.777 5 20.5 5 L 10.5 5 z M 12.5 10 C 12.223 10 12 10.223 12 10.5 C 12 10.777 12.223 11 12.5 11 L 20.5 11 C 20.777 11 21 10.777 21 10.5 C 21 10.223 20.777 10 20.5 10 L 12.5 10 z M 12.5 13 C 12.223 13 12 13.223 12 13.5 C 12 13.777 12.223 14 12.5 14 L 20.5 14 C 20.777 14 21 13.777 21 13.5 C 21 13.223 20.777 13 20.5 13 L 12.5 13 z M 10.5 18 C 10.223 18 10 18.223 10 18.5 C 10 18.777 10.223 19 10.5 19 L 20.5 19 C 20.777 19 21 18.777 21 18.5 C 21 18.223 20.777 18 20.5 18 L 10.5 18 z M 10.5 21 C 10.223 21 10 21.223 10 21.5 C 10 21.777 10.223 22 10.5 22 L 20.5 22 C 20.777 22 21 21.777 21 21.5 C 21 21.223 20.777 21 20.5 21 L 10.5 21 z "
     />
  <path
     style="fill:#76a797"
     d="m 5,8 v 3 H 2 v 2 h 3 v 3 h 2 v -3 h 3 V 11 H 7 V 8 Z"
     />
</svg>
